icons/svg/link-off.svg

﻿<?xml version="1.0" encoding="utf-8"?>
<!DOCTYPE svg PUBLIC "-//W3C//DTD SVG 1.1//EN" "http://www.w3.org/Graphics/SVG/1.1/DTD/svg11.dtd">
<svg xmlns="http://www.w3.org/2000/svg" xmlns:xlink="http://www.w3.org/1999/xlink" version="1.1" baseProfile="full" width="24" height="24" viewBox="0 0 24.00 24.00" enable-background="new 0 0 24.00 24.00" xml:space="preserve">
	<path fill="#000000" fill-opacity="1" stroke-width="0.2" stroke-linejoin="round" d="M 2,5.26848L 3.27711,4L 20,20.7229L 18.7315,22L 14.7297,17.9982L 12.9995,17.9982L 12.9995,16.2679L 9.7297,12.9982L 7.99947,12.9982L 7.99947,11.2679L 5.4885,8.75698C 4.52176,9.50709 3.89945,10.6801 3.89945,11.9982C 3.89945,14.2621 5.73551,16.0981 7.99947,16.0981L 10.9995,16.0981L 10.9995,17.9982L 7.99947,17.9982C 4.68648,17.9982 1.99947,15.3121 1.99947,11.9982C 1.99947,10.1554 2.83033,8.50672 4.13767,7.40615L 2,5.26848 Z M 15.9995,5.99817C 19.3145,5.99817 21.9995,8.68417 21.9995,11.9982C 21.9995,14.2144 20.7986,16.1499 19.0116,17.1889L 17.5976,15.7749C 19.0678,15.1518 20.0995,13.6952 20.0995,11.9982C 20.0995,9.73413 18.2635,7.89811 15.9995,7.89811L 12.9995,7.89811L 12.9995,5.99817L 15.9995,5.99817 Z M 7.99947,5.99817L 10.9995,5.99817L 10.9995,7.89812L 9.7208,7.89812L 7.82339,6.00071L 7.99947,5.99817 Z M 15.9995,10.9982L 15.9995,12.9982L 14.8209,12.9982L 12.8209,10.9982L 15.9995,10.9982 Z "/>
</svg>

<svg xmlns="http://www.w3.org/2000/svg" version="1.1" baseProfile="full" width="24" height="24" viewBox="0 0 24.00 24.00" xml:space="preserve"><path fill="#000" fill-opacity="1" stroke-width=".2" stroke-linejoin="round" d="M2 5.268L3.277 4 20 20.723 18.732 22l-4.002-4.002H13v-1.73l-3.27-3.27H8v-1.73l-2.511-2.51c-.968.75-1.59 1.922-1.59 3.24 0 2.264 1.836 4.1 4.1 4.1h3v1.9H8c-3.314 0-6-2.686-6-6 0-1.843.83-3.49 2.138-4.592L2 5.268zm14 .73c3.314 0 6 2.686 6 6 0 2.216-1.2 4.152-2.988 5.19l-1.414-1.413c1.47-.623 2.502-2.08 2.502-3.777 0-2.264-1.837-4.1-4.1-4.1h-3v-1.9h3zm-8 0h3v1.9H9.72L7.824 6 8 6zm8 5v2h-1.18l-2-2H16z"/></svg>
